X: 19519
T: Jaimee's Chickens
R: reel
M: 4/4
K: Dmajor
DEFA d3e|fddc dBAd|B3d BAFA|BcdB AFEF|
DEFA dcde|fddc dBAd|B3d Bdef|1 gedc dBAF:|2 gedc defg||
addc dBAe|fddc d2Ad|BdAd BdAd|Bdef gefg|
addc dBAe|fddc d2Ad|BdAd Bdef|1 gedc defg:|2 gedc dBAF||

